X: 062
T: Just so
B: 204 Favourite Country Dances
N: Published by Straight & Skillern, London ca.1775
F: http://imslp.org/wiki/204_Favourite_Country_Dances_(Various) p.31 #62
Z: 2014 John Chambers <jc:trillian.mit.edu>
M: 2/4
L: 1/8
K: Em
% - - - - - - - - - - - - - - - - - - - - - - - - -
|:\
E2GB | E2GB | cBAG | FBAF |\
E2GB | E2GB | gef^d | e2eg :|
|:\
B2BG | B2BG | cBAG | ABGE |\
B2BG | B2BG | gef^d | e2eg :|
% - - - - - - - - - - - - - - - - - - - - - - - - -
%%begintext align
%% Cast off 2 Cu. up again cross over
%% 1 Cu. Right & Left
%%endtext

%%sep 1 1 500
%%sep 1 1 500
